; generated by PrusaSlicer 2.5.0+MacOS-x64 on 2023-08-15 at 18:47:12 UTC

; 

; external perimeters extrusion width = 5.00mm
; perimeters extrusion width = 5.00mm
; infill extrusion width = 5.00mm
; solid infill extrusion width = 5.00mm
; top infill extrusion width = 5.00mm
; first layer extrusion width = 5.00mm

M201 X1000 Y1000 Z20 E1500 ; sets maximum accelerations, mm/sec^2
M203 X13000 Y13000 Z800 E8000 ; sets maximum feedrates, mm / sec
M204 P1500 R1500 T1500 ; sets acceleration (P, T) and retract acceleration (R), mm/sec^2
M205 X17.00 Y17.00 Z0.10 E50.00 ; sets the jerk limits, mm/sec
M205 S0 T0 ; sets the minimum extruding and travel feed rate, mm/sec
M107
;TYPE:Custom
G91 ; relative moves
G1 Z1 F900 ; raise tool 1mm
G90 ; absolute moves
T-1 ; Make sure nothing is parked on the carriage
G0 X150 Y150 F10000; Move to the center of the print area
M558 F500  ; Set the probing speed
G30 ; Do a single probe
M558 F50 ; Set a slower probing speed
G30 ; Do a second probe
T0
G21 ; set units to millimeters
G90 ; use absolute coordinates
M83 ; use relative distances for extrusion
; Filament gcode
M107
;LAYER_CHANGE
;Z:4
;HEIGHT:4
;BEFORE_LAYER_CHANGE
G92 E0.0
G1 Z4 F1800
G1 X132.5 Y132.5
;TYPE:External perimeter
;WIDTH:5
G1 F300
G1 X167.5 Y132.5 E.45394
G1 X167.5 Y167.5 E.45394
G1 X132.5 Y167.5 E.45394
G1 X132.5 Y133.25 E.44421
G1 X164.187 Y135.813 F1800
;TYPE:Solid infill
G1 F300
G1 X135.813 Y135.813 E.36799
G1 X135.813 Y164.187 E.36799
G1 X164.187 Y164.187 E.36799
G1 X164.187 Y136.563 E.35826
G1 X160.045 Y139.955 F1800
G1 F300
G1 X139.955 Y139.955 E.26056
G1 X139.955 Y160.045 E.26056
G1 X160.045 Y160.045 E.26056
G1 X160.045 Y140.705 E.25084
G1 X155.904 Y144.096 F1800
G1 F300
G1 X144.096 Y144.096 E.15313
G1 X144.096 Y155.904 E.15313
G1 X155.904 Y155.904 E.15313
G1 X155.904 Y144.846 E.14341
G1 X151.916 Y148.084 F1800
;WIDTH:4.69116
G1 F300
G1 X148.084 Y148.084 E.046
G1 X148.084 Y151.916 E.046
G1 X151.916 Y151.916 E.046
G1 X151.916 Y148.834 E.037
M106 S255
;LAYER_CHANGE
;Z:8
;HEIGHT:4
;BEFORE_LAYER_CHANGE
G92 E0.0
G1 Z4.000 F1800
;TYPE:External perimeter
;WIDTH:5
G1 F300
G1 Z4.533 X167.5 Y167.5 E0.032
G1 Z5.533 X132.5 Y167.5 E0.174
G1 Z6.533 X132.5 Y132.5 E0.287
G1 Z7.533 X167.5 Y132.5 E0.401
G1 Z8.000 X167.5 Y148.834 E0.212
;LAYER_CHANGE
;Z:12
;HEIGHT:4
;BEFORE_LAYER_CHANGE
G92 E0.0
G1 Z8.000 F1800
G1 F300
G1 Z8.533 X167.5 Y167.5 E.2421
G1 Z9.533 X132.5 Y167.5 E.45394
G1 Z10.533 X132.5 Y132.5 E.45394
G1 Z11.533 X167.5 Y132.5 E.45394
G1 Z12.000 X167.5 Y148.834 E.21184
;LAYER_CHANGE
;Z:16
;HEIGHT:4
;BEFORE_LAYER_CHANGE
G92 E0.0
G1 Z12.000 F1800
G1 F300
G1 Z12.533 X167.5 Y167.5 E.2421
G1 Z13.533 X132.5 Y167.5 E.45394
G1 Z14.533 X132.5 Y132.5 E.45394
G1 Z15.533 X167.5 Y132.5 E.45394
G1 Z16.000 X167.5 Y148.834 E.21184
;LAYER_CHANGE
;Z:20
;HEIGHT:4
;BEFORE_LAYER_CHANGE
G92 E0.0
G1 Z16.000 F1800
G1 F300
G1 Z16.533 X167.5 Y167.5 E.2421
G1 Z17.533 X132.5 Y167.5 E.45394
G1 Z18.533 X132.5 Y132.5 E.45394
G1 Z19.533 X167.5 Y132.5 E.45394
G1 Z20.000 X167.5 Y148.834 E.21184
;LAYER_CHANGE
;Z:24
;HEIGHT:4
;BEFORE_LAYER_CHANGE
G92 E0.0
G1 Z20.000 F1800
G1 F300
G1 Z20.533 X167.5 Y167.5 E.2421
G1 Z21.533 X132.5 Y167.5 E.45394
G1 Z22.533 X132.5 Y132.5 E.45394
G1 Z23.533 X167.5 Y132.5 E.45394
G1 Z24.000 X167.5 Y148.834 E.21184
;LAYER_CHANGE
;Z:28
;HEIGHT:4
;BEFORE_LAYER_CHANGE
G92 E0.0
G1 Z24.000 F1800
G1 F300
G1 Z24.533 X167.5 Y167.5 E.2421
G1 Z25.533 X132.5 Y167.5 E.45394
G1 Z26.533 X132.5 Y132.5 E.45394
G1 Z27.533 X167.5 Y132.5 E.45394
G1 Z28.000 X167.5 Y148.834 E.21184
;LAYER_CHANGE
;Z:32
;HEIGHT:4
;BEFORE_LAYER_CHANGE
G92 E0.0
G1 Z28.000 F1800
G1 F300
G1 Z28.533 X167.5 Y167.5 E.2421
G1 Z29.533 X132.5 Y167.5 E.45394
G1 Z30.533 X132.5 Y132.5 E.45394
G1 Z31.533 X167.5 Y132.5 E.45394
G1 Z32.000 X167.5 Y148.834 E.21184
;LAYER_CHANGE
;Z:36
;HEIGHT:4
;BEFORE_LAYER_CHANGE
G92 E0.0
G1 Z32.000 F1800
G1 F300
G1 Z32.533 X167.5 Y167.5 E.2421
G1 Z33.533 X132.5 Y167.5 E.45394
G1 Z34.533 X132.5 Y132.5 E.45394
G1 Z35.533 X167.5 Y132.5 E.45394
G1 Z36.000 X167.5 Y148.834 E.21184
;LAYER_CHANGE
;Z:40
;HEIGHT:4
;BEFORE_LAYER_CHANGE
G92 E0.0
G1 Z36.000 F1800
G1 F300
G1 Z36.533 X167.5 Y167.5 E.2421
G1 Z37.533 X132.5 Y167.5 E.45394
G1 Z38.533 X132.5 Y132.5 E.45394
G1 Z39.533 X167.5 Y132.5 E.45394
G1 Z40.000 X167.5 Y148.834 E.21184
M107
;TYPE:Custom
; Filament-specific end gcode 
;END gcode for filament
; Filament-specific end gcode 
;END gcode for filament
T-1         ; desect current tool
G0 Z305  ; move bed all the way to the bottom
M104 S0 T0; turn off extruder 0
M104 S0 T1; turn off extruder 1
M140 S0 ; turn off bed
G0 X0 Y0 F30000; return home
M84 S600; disable motors after ten mins of inactivity
; filament used [mm] = 21.42
; filament used [cm3] = 82.08
; total filament used [g] = 0.00
; total filament cost = 0.00
; estimated printing time (normal mode) = 6m 30s

; prusaslicer_config = begin
; avoid_crossing_perimeters = 0
; avoid_crossing_perimeters_max_detour = 0
; bed_custom_model = /Users/danliluo/Downloads/Jubilee_211_Prusa_Plate (1).stl
; bed_custom_texture = /Users/danliluo/Downloads/Jubilee_Bed_Graphic.png
; bed_shape = 0x0,300x0,300x300,0x300
; bed_temperature = 0,0
; before_layer_gcode = ;BEFORE_LAYER_CHANGE\nG92 E0.0
; between_objects_gcode = 
; bottom_fill_pattern = concentric
; bottom_solid_layers = 1
; bottom_solid_min_thickness = 0
; bridge_acceleration = 0
; bridge_angle = 0
; bridge_fan_speed = 100,100
; bridge_flow_ratio = 1
; bridge_speed = 5
; brim_separation = 0
; brim_type = outer_only
; brim_width = 2
; clip_multipart_objects = 0
; color_change_gcode = M600
; complete_objects = 0
; cooling = 1,1
; cooling_tube_length = 5
; cooling_tube_retraction = 91.5
; default_acceleration = 0
; default_filament_profile = ""
; default_print_profile = 
; deretract_speed = 0,0
; disable_fan_first_layers = 1,1
; dont_support_bridges = 1
; draft_shield = disabled
; duplicate_distance = 6
; elefant_foot_compensation = 0
; end_filament_gcode = "; Filament-specific end gcode \n;END gcode for filament\n";"; Filament-specific end gcode \n;END gcode for filament\n"
; end_gcode = T-1         ; desect current tool\nG0 Z305  ; move bed all the way to the bottom\nM104 S0 T0; turn off extruder 0\nM104 S0 T1; turn off extruder 1\nM140 S0 ; turn off bed\nG0 X0 Y0 F30000; return home\nM84 S600; disable motors after ten mins of inactivity\n
; ensure_vertical_shell_thickness = 1
; external_perimeter_extrusion_width = 5
; external_perimeter_speed = 5
; external_perimeters_first = 1
; extra_loading_move = -2
; extra_perimeters = 1
; extruder_clearance_height = 20
; extruder_clearance_radius = 20
; extruder_colour = #FF8000;#FF8000
; extruder_offset = 0x0,0x0
; extrusion_axis = E
; extrusion_multiplier = 3,3
; extrusion_width = 5
; fan_always_on = 0,0
; fan_below_layer_time = 600,600
; filament_colour = #00BB00;#00BB00
; filament_cooling_final_speed = 3.4,3.4
; filament_cooling_initial_speed = 2.2,2.2
; filament_cooling_moves = 4,4
; filament_cost = 24,24
; filament_density = 0,0
; filament_diameter = 69.85,69.85
; filament_load_time = 0,0
; filament_loading_speed = 28,28
; filament_loading_speed_start = 3,3
; filament_max_volumetric_speed = 0,0
; filament_minimal_purge_on_wipe_tower = 15,15
; filament_notes = ;
; filament_ramming_parameters = "120 100 6.6 6.8 7.2 7.6 7.9 8.2 8.7 9.4 9.9 10.0| 0.05 6.6 0.45 6.8 0.95 7.8 1.45 8.3 1.95 9.7 2.45 10 2.95 7.6 3.45 7.6 3.95 7.6 4.45 7.6 4.95 7.6";"120 100 6.6 6.8 7.2 7.6 7.9 8.2 8.7 9.4 9.9 10.0| 0.05 6.6 0.45 6.8 0.95 7.8 1.45 8.3 1.95 9.7 2.45 10 2.95 7.6 3.45 7.6 3.95 7.6 4.45 7.6 4.95 7.6"
; filament_retract_layer_change = 0,0
; filament_settings_id = "Dubilee - coffee";"Dubilee - coffee"
; filament_soluble = 0,0
; filament_spool_weight = 0,0
; filament_toolchange_delay = 0,0
; filament_type = PLA;PLA
; filament_unload_time = 0,0
; filament_unloading_speed = 90,90
; filament_unloading_speed_start = 100,100
; filament_vendor = (Unknown)
; fill_angle = 45
; fill_density = 0%
; fill_pattern = rectilinear
; first_layer_acceleration = 0
; first_layer_acceleration_over_raft = 0
; first_layer_bed_temperature = 0,0
; first_layer_extrusion_width = 5
; first_layer_height = 4
; first_layer_speed = 5
; first_layer_speed_over_raft = 30
; first_layer_temperature = 0,0
; full_fan_speed_layer = 0,0
; fuzzy_skin = none
; fuzzy_skin_point_dist = 0.8
; fuzzy_skin_thickness = 0.3
; gap_fill_enabled = 1
; gap_fill_speed = 5
; gcode_comments = 0
; gcode_flavor = marlin
; gcode_label_objects = 0
; gcode_resolution = 0.0125
; gcode_substitutions = 
; high_current_on_filament_swap = 0
; host_type = duet
; infill_acceleration = 0
; infill_anchor = 600%
; infill_anchor_max = 50
; infill_every_layers = 1
; infill_extruder = 1
; infill_extrusion_width = 5
; infill_first = 0
; infill_only_where_needed = 0
; infill_overlap = 20%
; infill_speed = 5
; interface_shells = 0
; ironing = 0
; ironing_flowrate = 15%
; ironing_spacing = 0.1
; ironing_speed = 15
; ironing_type = top
; layer_gcode = 
; layer_height = 4
; machine_limits_usage = emit_to_gcode
; machine_max_acceleration_e = 1500,5000
; machine_max_acceleration_extruding = 1500,1250
; machine_max_acceleration_retracting = 1500,1250
; machine_max_acceleration_travel = 1500,1250
; machine_max_acceleration_x = 1000,1000
; machine_max_acceleration_y = 1000,1000
; machine_max_acceleration_z = 20,200
; machine_max_feedrate_e = 8000,120
; machine_max_feedrate_x = 13000,200
; machine_max_feedrate_y = 13000,200
; machine_max_feedrate_z = 800,12
; machine_max_jerk_e = 50,2.5
; machine_max_jerk_x = 17,10
; machine_max_jerk_y = 17,10
; machine_max_jerk_z = 0.1,0.4
; machine_min_extruding_rate = 0,0
; machine_min_travel_rate = 0,0
; max_fan_speed = 100,100
; max_layer_height = 5,5
; max_print_height = 300
; max_print_speed = 20
; max_volumetric_extrusion_rate_slope_negative = 0
; max_volumetric_extrusion_rate_slope_positive = 0
; max_volumetric_speed = 0
; min_bead_width = 85%
; min_fan_speed = 100,100
; min_feature_size = 25%
; min_layer_height = 0.05,0.05
; min_print_speed = 30,30
; min_skirt_length = 1
; mmu_segmented_region_max_width = 0
; notes = 
; nozzle_diameter = 5,5
; only_retract_when_crossing_perimeters = 1
; ooze_prevention = 0
; output_filename_format = [input_filename_base].gcode
; overhangs = 1
; parking_pos_retraction = 92
; pause_print_gcode = M601
; perimeter_acceleration = 0
; perimeter_extruder = 1
; perimeter_extrusion_width = 5
; perimeter_generator = arachne
; perimeter_speed = 5
; perimeters = 1
; physical_printer_settings_id = 
; post_process = 
; print_settings_id = coffee paste
; printer_model = 
; printer_notes = 
; printer_settings_id = Dubilee - coffee
; printer_technology = FFF
; printer_variant = 
; printer_vendor = 
; raft_contact_distance = 0.1
; raft_expansion = 1.5
; raft_first_layer_density = 90%
; raft_first_layer_expansion = 3
; raft_layers = 0
; remaining_times = 0
; resolution = 0
; retract_before_travel = 2,2
; retract_before_wipe = 0%,0%
; retract_layer_change = 0,0
; retract_length = 0,0
; retract_length_toolchange = 1,1
; retract_lift = 0.5,0.5
; retract_lift_above = 0,0
; retract_lift_below = 0,0
; retract_restart_extra = 0.05,0.05
; retract_restart_extra_toolchange = 0,0
; retract_speed = 30,30
; seam_position = nearest
; silent_mode = 0
; single_extruder_multi_material = 0
; single_extruder_multi_material_priming = 0
; skirt_distance = 6
; skirt_height = 1
; skirts = 0
; slice_closing_radius = 0.049
; slicing_mode = regular
; slowdown_below_layer_time = 1,1
; small_perimeter_speed = 5
; solid_infill_below_area = 70
; solid_infill_every_layers = 0
; solid_infill_extruder = 1
; solid_infill_extrusion_width = 5
; solid_infill_speed = 5
; spiral_vase = 1
; standby_temperature_delta = -5
; start_filament_gcode = "; Filament gcode\n";"; Filament gcode\n"
; start_gcode = G91 ; relative moves\nG1 Z1 F900 ; raise tool 1mm\nG90 ; absolute moves\nT-1 ; Make sure nothing is parked on the carriage\nG0 X150 Y150 F10000; Move to the center of the print area\nM558 F500  ; Set the probing speed\nG30 ; Do a single probe\nM558 F50 ; Set a slower probing speed\nG30 ; Do a second probe\nT[current_extruder]
; support_material = 0
; support_material_angle = 0
; support_material_auto = 1
; support_material_bottom_contact_distance = 0
; support_material_bottom_interface_layers = -1
; support_material_buildplate_only = 1
; support_material_closing_radius = 2
; support_material_contact_distance = 0
; support_material_enforce_layers = 0
; support_material_extruder = 1
; support_material_extrusion_width = 0
; support_material_interface_contact_loops = 0
; support_material_interface_extruder = 2
; support_material_interface_layers = 3
; support_material_interface_pattern = rectilinear
; support_material_interface_spacing = 0
; support_material_interface_speed = 100%
; support_material_pattern = rectilinear
; support_material_spacing = 2.5
; support_material_speed = 5
; support_material_style = grid
; support_material_synchronize_layers = 1
; support_material_threshold = 0
; support_material_with_sheath = 1
; support_material_xy_spacing = 50%
; temperature = 0,0
; template_custom_gcode = 
; thick_bridges = 1
; thin_walls = 0
; threads = 8
; thumbnails = 
; thumbnails_format = PNG
; toolchange_gcode = T[next_extruder]
; top_fill_pattern = concentric
; top_infill_extrusion_width = 0
; top_solid_infill_speed = 5
; top_solid_layers = 0
; top_solid_min_thickness = 0
; travel_speed = 30
; travel_speed_z = 0
; use_firmware_retraction = 0
; use_relative_e_distances = 1
; use_volumetric_e = 0
; variable_layer_height = 0
; wall_distribution_count = 1
; wall_transition_angle = 10
; wall_transition_filter_deviation = 25%
; wall_transition_length = 100%
; wipe = 0,0
; wipe_into_infill = 0
; wipe_into_objects = 0
; wipe_tower = 0
; wipe_tower_bridging = 10
; wipe_tower_brim_width = 2
; wipe_tower_no_sparse_layers = 0
; wipe_tower_rotation_angle = 0
; wipe_tower_width = 10
; wipe_tower_x = 100
; wipe_tower_y = 100
; wiping_volumes_extruders = 70,70,70,70
; wiping_volumes_matrix = 0,140,140,0
; xy_size_compensation = 0
; z_offset = 0
; prusaslicer_config = end
