; generated by PrusaSlicer 2.5.0+MacOS-x64 on 2023-08-23 at 18:05:22 UTC

; 

; external perimeters extrusion width = 5.00mm
; perimeters extrusion width = 5.00mm
; infill extrusion width = 5.00mm
; solid infill extrusion width = 5.00mm
; top infill extrusion width = 5.00mm
; first layer extrusion width = 5.00mm

M201 X1000 Y1000 Z20 E1500 ; sets maximum accelerations, mm/sec^2
M203 X13000 Y13000 Z800 E8000 ; sets maximum feedrates, mm / sec
M204 P1500 R1500 T1500 ; sets acceleration (P, T) and retract acceleration (R), mm/sec^2
M205 X17.00 Y17.00 Z0.10 E50.00 ; sets the jerk limits, mm/sec
M205 S0 T0 ; sets the minimum extruding and travel feed rate, mm/sec
M107
;TYPE:Custom
G91 ; relative moves
G1 Z1 F900 ; raise tool 1mm
G90 ; absolute moves
T-1 ; Make sure nothing is parked on the carriage
G0 X150 Y150 F10000; Move to the center of the print area
M558 F500  ; Set the probing speed
G30 ; Do a single probe
M558 F50 ; Set a slower probing speed
G30 ; Do a second probe
T0
G21 ; set units to millimeters
G90 ; use absolute coordinates
M83 ; use relative distances for extrusion
; Filament gcode
M107
;LAYER_CHANGE
;Z:4
;HEIGHT:4
;BEFORE_LAYER_CHANGE
G92 E0.0
G1 Z4 F3000
G1 X133.687 Y137.62
;TYPE:External perimeter
;WIDTH:5
G1 F300
G1 X135.165 Y138.486 E.0074
G1 X135.696 Y138.705 E.00248
G1 X136.23 Y138.851 E.00239
G1 X136.746 Y138.885 E.00224
G1 X137.169 Y138.816 E.00186
G1 X137.705 Y138.633 E.00245
G1 X138.217 Y138.327 E.00258
G1 X138.602 Y137.987 E.00222
G1 X138.878 Y137.588 E.0021
G1 X139.31 Y136.743 E.0041
G1 X139.89 Y135.23 E.007
G1 X140.659 Y134.971 E.00351
G1 X141.283 Y134.63 E.00307
G1 X141.653 Y134.29 E.00217
G1 X141.916 Y133.836 E.00227
G1 X142.662 Y133.808 E.00323
G1 X143.855 Y133.693 E.00518
G1 X144.874 Y133.539 E.00446
G1 X146.049 Y133.265 E.00521
G1 X147.276 Y132.885 E.00556
G1 X148.285 Y132.507 E.00466
G1 X148.912 Y132.247 E.00293
G1 X149.718 Y131.888 E.00381
G1 X150.501 Y131.504 E.00377
G1 X151.694 Y130.848 E.00589
G1 X153.236 Y129.872 E.00789
G1 X154.713 Y128.792 E.00791
G1 X156.108 Y127.647 E.0078
G1 X157.409 Y126.455 E.00763
G1 X158.617 Y125.237 E.00742
G1 X159.719 Y124.027 E.00707
G1 X160.808 Y122.762 E.00722
G1 X162.083 Y121.195 E.00874
G1 X165.186 Y123.734 E.01733
G1 X166.544 Y124.787 E.00743
G1 X167.874 Y125.719 E.00702
G1 X169.28 Y126.584 E.00714
G1 X170.742 Y127.356 E.00715
G1 X171.807 Y127.833 E.00504
G1 X172.786 Y128.206 E.00453
G1 X173.374 Y128.402 E.00268
G1 X174.063 Y128.593 E.00309
G1 X174.594 Y128.703 E.00234
G1 X175.401 Y128.844 E.00354
G1 X176.2 Y128.892 E.00346
G1 X176.932 Y128.884 E.00316
G1 X178.434 Y128.635 E.00658
G1 X179.372 Y128.333 E.00426
G1 X180.019 Y128.065 E.00303
G1 X180.824 Y127.672 E.00387
G1 X181.788 Y127.134 E.00477
G1 X184.833 Y125.267 E.01544
G1 X185.839 Y124.691 E.00501
G1 X186.863 Y124.15 E.00501
G1 X187.881 Y123.664 E.00488
G1 X188.994 Y123.196 E.00522
G1 X190.048 Y122.82 E.00484
G1 X191.221 Y122.477 E.00528
G1 X192.367 Y122.219 E.00508
G1 X194.101 Y121.958 E.00758
G1 X194.821 Y121.904 E.00312
G1 X195.871 Y121.879 E.00454
G1 X197.531 Y121.91 E.00718
G1 X197.829 Y121.931 E.00129
G1 X197.527 Y168.392 E.20086
G1 X194.179 Y167.688 E.01479
G1 X188.948 Y166.695 E.02302
G1 X186.92 Y166.266 E.00896
G1 X185.542 Y165.947 E.00611
G1 X184.061 Y165.565 E.00661
G1 X175.887 Y163.268 E.03671
G1 X173.538 Y162.666 E.01048
G1 X171.534 Y162.213 E.00888
G1 X170.351 Y162.05 E.00516
G1 X169.715 Y161.992 E.00276
G1 X167.118 Y161.818 E.01125
G1 X166.567 Y161.798 E.00239
G1 X164.789 Y161.781 E.00768
G1 X164.071 Y161.796 E.00311
G1 X162.419 Y161.93 E.00716
G1 X161.199 Y162.099 E.00533
G1 X159.47 Y162.424 E.0076
G1 X157.609 Y162.855 E.00826
G1 X156.273 Y163.202 E.00597
G1 X153.963 Y163.866 E.01039
G1 X152.37 Y164.353 E.0072
G1 X142.916 Y167.323 E.04284
G1 X139.64 Y168.427 E.01494
G1 X135.548 Y169.724 E.01856
G1 X129.764 Y171.602 E.02629
G1 X129.027 Y171.889 E.00342
G1 X126.835 Y172.831 E.01031
G1 X126.119 Y173.117 E.00334
G1 X124.534 Y173.689 E.00728
G1 X121.747 Y174.644 E.01274
G1 X117.845 Y176.249 E.01824
G1 X116.608 Y176.725 E.00573
G1 X115.289 Y177.167 E.00601
G1 X113.282 Y177.762 E.00905
G1 X110.43 Y178.642 E.0129
G1 X108.821 Y179.058 E.00719
G1 X108.115 Y179.209 E.00312
G1 X107.223 Y179.344 E.0039
G1 X106.476 Y179.383 E.00324
G1 X105.908 Y179.301 E.00248
G1 X105.704 Y179.16 E.00107
G1 X105.397 Y178.742 E.00224
G1 X105.113 Y178.275 E.00236
G1 X104.544 Y177.267 E.00501
G1 X104.114 Y176.379 E.00426
G1 X103.737 Y175.46 E.00429
G1 X103.137 Y173.81 E.00759
G1 X102.921 Y173.088 E.00325
G1 X102.764 Y172.383 E.00312
G1 X102.676 Y171.803 E.00254
G1 X102.624 Y171.164 E.00277
G1 X102.623 Y170.576 E.00254
G1 X102.667 Y170.001 E.00249
G1 X102.814 Y168.997 E.00439
G1 X102.979 Y168.215 E.00346
G1 X103.143 Y167.72 E.00225
G1 X103.399 Y167.116 E.00284
G1 X104.129 Y165.618 E.0072
G1 X105.035 Y164.003 E.00801
G1 X106.074 Y162.309 E.00859
G1 X106.699 Y161.369 E.00488
G1 X107.276 Y160.561 E.00429
G1 X108.533 Y158.942 E.00886
G1 X109.848 Y157.446 E.00861
G1 X111.215 Y156.022 E.00853
G1 X112.232 Y155.049 E.00609
G1 X114.142 Y156.26 E.00978
G1 X114.676 Y156.536 E.0026
G1 X115.137 Y156.698 E.00211
G1 X115.604 Y156.748 E.00203
G1 X116.382 Y156.707 E.00337
G1 X116.818 Y156.571 E.00198
G1 X117.369 Y156.275 E.0027
G1 X117.71 Y156.037 E.0018
G1 X118.495 Y155.356 E.00449
G1 X119.783 Y154.099 E.00778
G1 X122.25 Y151.547 E.01534
G1 X122.958 Y150.748 E.00461
G1 X123.666 Y149.871 E.00488
G1 X124.391 Y148.843 E.00543
G1 X124.881 Y148.027 E.00412
G1 X125.393 Y147.012 E.00491
G1 X125.815 Y145.965 E.00488
G1 X126.163 Y144.899 E.00485
G1 X126.447 Y143.844 E.00472
G1 X126.653 Y142.961 E.00392
G1 X126.903 Y141.736 E.00541
G1 X127.173 Y139.982 E.00767
G1 X127.445 Y137.811 E.00946
G1 X127.584 Y136.87 E.00411
G1 X127.748 Y135.92 E.00417
G1 X127.937 Y135.009 E.00402
G1 X128.265 Y133.814 E.00536
G1 X128.893 Y134.124 E.00303
G1 X129.586 Y134.548 E.00351
G1 X130.181 Y134.962 E.00314
G1 X132.311 Y136.641 E.01172
G1 X133.068 Y137.197 E.00406
G1 X153.057 Y160.679 F3000
;TYPE:Solid infill
G1 F300
G1 X155.4 Y160.006 E.01054
G1 X156.805 Y159.641 E.00628
G1 X158.789 Y159.182 E.0088
G1 X160.572 Y158.846 E.00784
G1 X161.913 Y158.655 E.00586
G1 X163.022 Y158.542 E.00482
G1 X163.956 Y158.486 E.00405
G1 X165.231 Y158.469 E.00551
G1 X166.652 Y158.486 E.00614
G1 X167.538 Y158.518 E.00383
G1 X170.045 Y158.695 E.01087
G1 X170.608 Y158.747 E.00244
G1 X172.201 Y158.968 E.00695
G1 X174.315 Y159.445 E.00937
G1 X176.747 Y160.069 E.01086
G1 X184.922 Y162.366 E.03671
G1 X186.329 Y162.729 E.00628
G1 X187.636 Y163.031 E.0058
G1 X189.6 Y163.446 E.00868
G1 X194.24 Y164.327 E.02042
G1 X194.494 Y125.251 E.16894
G1 X193.126 Y125.445 E.00598
G1 X192.026 Y125.692 E.00487
G1 X191.085 Y125.968 E.00424
G1 X190.194 Y126.286 E.00409
G1 X189.238 Y126.687 E.00448
G1 X188.352 Y127.111 E.00425
G1 X187.437 Y127.594 E.00447
G1 X186.523 Y128.118 E.00455
G1 X183.463 Y129.991 E.01551
G1 X182.237 Y130.67 E.00606
G1 X181.243 Y131.144 E.00476
G1 X180.307 Y131.515 E.00435
G1 X179.051 Y131.893 E.00567
G1 X177.366 Y132.167 E.00738
G1 X176.825 Y132.206 E.00234
G1 X176.213 Y132.206 E.00264
G1 X174.573 Y132.074 E.00712
G1 X173.427 Y131.847 E.00505
G1 X172.514 Y131.602 E.00409
G1 X171.615 Y131.306 E.00409
G1 X170.611 Y130.923 E.00465
G1 X170.13 Y130.71 E.00227
G1 X169.256 Y130.317 E.00415
G1 X167.591 Y129.434 E.00814
G1 X166.001 Y128.452 E.00808
G1 X164.49 Y127.388 E.00799
G1 X162.529 Y125.842 E.0108
G1 X162.199 Y126.224 E.00218
G1 X160.831 Y127.707 E.00872
G1 X159.678 Y128.87 E.00708
G1 X158.254 Y130.171 E.00834
G1 X156.83 Y131.341 E.00797
G1 X155.1 Y132.61 E.00928
G1 X153.709 Y133.506 E.00715
G1 X152.831 Y134.016 E.00439
G1 X152.058 Y134.426 E.00378
G1 X151.091 Y134.903 E.00466
G1 X149.496 Y135.591 E.00751
G1 X148.459 Y135.98 E.00479
G1 X146.949 Y136.453 E.00684
G1 X145.354 Y136.816 E.00707
G1 X144.059 Y137.01 E.00566
G1 X143.534 Y137.058 E.00228
G1 X143.112 Y137.383 E.0023
G1 X142.462 Y137.769 E.00327
G1 X142.218 Y138.347 E.00271
G1 X141.634 Y139.428 E.00531
G1 X141.229 Y139.986 E.00298
G1 X140.89 Y140.388 E.00227
G1 X140.056 Y141.074 E.00467
G1 X139.719 Y141.296 E.00175
G1 X139.006 Y141.67 E.00348
G1 X138.627 Y141.821 E.00176
G1 X137.75 Y142.074 E.00395
G1 X137.307 Y142.15 E.00194
G1 X136.617 Y142.194 E.00299
G1 X136.225 Y142.182 E.0017
G1 X135.656 Y142.109 E.00248
G1 X134.731 Y141.873 E.00413
G1 X134.06 Y141.61 E.00311
G1 X133.461 Y141.327 E.00287
G1 X131.784 Y140.333 E.00843
G1 X131.069 Y139.849 E.00373
G1 X130.574 Y139.48 E.00267
G1 X130.446 Y140.5 E.00445
G1 X130.143 Y142.427 E.00843
G1 X129.959 Y143.335 E.00401
G1 X129.649 Y144.694 E.00602
G1 X129.32 Y145.906 E.00543
G1 X129.055 Y146.718 E.00369
G1 X128.37 Y148.471 E.00814
G1 X127.692 Y149.782 E.00638
G1 X127.131 Y150.705 E.00467
G1 X126.394 Y151.753 E.00554
G1 X125.621 Y152.726 E.00537
G1 X124.556 Y153.932 E.00696
G1 X122.172 Y156.395 E.01482
G1 X120.769 Y157.766 E.00848
G1 X119.888 Y158.534 E.00505
G1 X119.148 Y159.064 E.00393
G1 X118.559 Y159.393 E.00292
G1 X117.978 Y159.672 E.00279
G1 X117.494 Y159.838 E.00221
G1 X116.559 Y160.022 E.00412
G1 X115.677 Y160.06 E.00382
G1 X114.658 Y159.97 E.00442
G1 X114.182 Y159.864 E.00211
G1 X113.43 Y159.599 E.00345
G1 X112.713 Y159.245 E.00346
G1 X112.288 Y159.687 E.00265
G1 X111.081 Y161.061 E.00791
G1 X109.942 Y162.529 E.00803
G1 X109.428 Y163.249 E.00382
G1 X108.867 Y164.093 E.00438
G1 X107.88 Y165.701 E.00816
G1 X107.074 Y167.137 E.00712
G1 X106.431 Y168.457 E.00635
G1 X106.173 Y169.13 E.00312
G1 X106.058 Y169.71 E.00256
G1 X105.967 Y170.328 E.0027
G1 X105.94 Y171.066 E.00319
G1 X105.994 Y171.584 E.00225
G1 X106.1 Y172.118 E.00235
G1 X106.32 Y172.867 E.00338
G1 X106.828 Y174.264 E.00643
G1 X107.141 Y175.027 E.00357
G1 X107.595 Y175.932 E.00438
G1 X108.551 Y175.706 E.00425
G1 X109.526 Y175.453 E.00436
G1 X112.301 Y174.598 E.01255
G1 X114.291 Y174.007 E.00898
G1 X115.486 Y173.606 E.00545
G1 X116.621 Y173.17 E.00526
G1 X120.582 Y171.543 E.01851
G1 X123.436 Y170.563 E.01305
G1 X124.941 Y170.02 E.00691
G1 X125.566 Y169.77 E.00291
G1 X127.776 Y168.821 E.0104
G1 X128.546 Y168.521 E.00357
G1 X134.531 Y166.571 E.02721
G1 X138.61 Y165.278 E.0185
G1 X141.931 Y164.159 E.01515
G1 X152.339 Y160.898 E.04715
G1 X151.847 Y156.718 F3000
G1 F300
G1 X154.258 Y156.025 E.01085
G1 X155.764 Y155.632 E.00673
G1 X157.856 Y155.146 E.00929
G1 X159.809 Y154.775 E.00859
G1 X161.336 Y154.554 E.00667
G1 X162.773 Y154.408 E.00624
G1 X163.707 Y154.352 E.00405
G1 X164.912 Y154.324 E.00521
G1 X166.703 Y154.345 E.00774
G1 X167.69 Y154.379 E.00427
G1 X170.281 Y154.56 E.01123
G1 X171.553 Y154.679 E.00553
G1 X173.037 Y154.912 E.00649
G1 X175.226 Y155.405 E.0097
G1 X177.732 Y156.046 E.01118
G1 X186 Y158.367 E.03712
G1 X187.313 Y158.705 E.00586
G1 X188.532 Y158.987 E.00541
G1 X190.131 Y159.326 E.00707
G1 X190.317 Y130.762 E.12349
G1 X189.442 Y131.219 E.00427
G1 X188.648 Y131.673 E.00396
G1 X185.381 Y133.665 E.01654
G1 X184.237 Y134.296 E.00565
G1 X183.014 Y134.888 E.00587
G1 X181.812 Y135.373 E.0056
G1 X181.311 Y135.545 E.00229
G1 X180.223 Y135.866 E.00491
G1 X179.661 Y136.003 E.0025
G1 X177.983 Y136.262 E.00734
G1 X177.486 Y136.317 E.00216
G1 X176.824 Y136.348 E.00286
G1 X176.212 Y136.347 E.00264
G1 X174.201 Y136.204 E.00872
G1 X172.618 Y135.909 E.00696
G1 X171.418 Y135.596 E.00536
G1 X170.309 Y135.237 E.00504
G1 X169.1 Y134.779 E.00559
G1 X167.559 Y134.095 E.00728
G1 X166.984 Y133.804 E.00279
G1 X165.641 Y133.087 E.00658
G1 X165.228 Y132.846 E.00207
G1 X163.818 Y131.971 E.00717
G1 X162.997 Y131.405 E.00431
G1 X162.27 Y132.114 E.00439
G1 X161.044 Y133.232 E.00717
G1 X159.456 Y134.545 E.00891
G1 X157.545 Y135.954 E.01026
G1 X155.944 Y136.993 E.00825
G1 X154.903 Y137.602 E.00521
G1 X153.991 Y138.089 E.00447
G1 X152.903 Y138.627 E.00525
G1 X151.841 Y139.102 E.00503
G1 X151.072 Y139.421 E.0036
G1 X149.91 Y139.859 E.00537
G1 X148.179 Y140.408 E.00785
G1 X146.508 Y140.811 E.00743
G1 X145.502 Y140.981 E.00441
G1 X145.001 Y141.86 E.00437
G1 X144.651 Y142.341 E.00257
G1 X144.266 Y142.818 E.00265
G1 X143.889 Y143.245 E.00247
G1 X143.326 Y143.758 E.00329
G1 X142.655 Y144.299 E.00373
G1 X141.997 Y144.763 E.00348
G1 X140.938 Y145.333 E.0052
G1 X140.174 Y145.67 E.00361
G1 X138.897 Y146.053 E.00576
G1 X138.19 Y146.213 E.00313
G1 X137.568 Y146.284 E.00271
G1 X136.879 Y146.327 E.00299
G1 X136.315 Y146.337 E.00244
G1 X135.702 Y146.29 E.00266
G1 X135.133 Y146.218 E.00248
G1 X134.236 Y146.035 E.00396
G1 X133.624 Y145.863 E.00275
G1 X133.332 Y146.94 E.00482
G1 X132.909 Y148.257 E.00598
G1 X132.18 Y150.095 E.00855
G1 X131.972 Y150.533 E.0021
G1 X131.364 Y151.699 E.00568
G1 X130.74 Y152.749 E.00528
G1 X129.865 Y154.023 E.00668
G1 X128.865 Y155.302 E.00702
G1 X127.72 Y156.609 E.00751
G1 X125.148 Y159.275 E.01602
G1 X123.656 Y160.736 E.00903
G1 X122.599 Y161.664 E.00608
G1 X122.087 Y162.063 E.00281
G1 X121.517 Y162.461 E.00301
G1 X121.181 Y162.645 E.00166
;WIDTH:4.96372
G1 X120.844 Y162.829 E.00164
;WIDTH:4.92743
G1 X120.508 Y162.991 E.00158
;WIDTH:4.90008
G1 X120.172 Y163.152 E.00157
;WIDTH:4.87272
G1 X119.298 Y163.504 E.00395
;WIDTH:4.82326
G1 X118.82 Y163.669 E.0021
;WIDTH:4.83964
G1 X118.27 Y163.838 E.00239
;WIDTH:4.88783
G1 X117.924 Y163.926 E.0015
;WIDTH:4.93602
G1 X117.578 Y164.013 E.00152
;WIDTH:4.98421
G1 X117.232 Y164.1 E.00154
;WIDTH:5
G1 X116.343 Y164.19 E.00386
G1 X115.758 Y164.201 E.00253
G1 X115.101 Y164.179 E.00284
G1 X114.002 Y164.052 E.00478
G1 X113.264 Y165.003 E.0052
G1 X112.839 Y165.599 E.00317
G1 X112.358 Y166.323 E.00376
G1 X111.107 Y168.393 E.01046
G1 X110.756 Y169.036 E.00317
G1 X110.233 Y170.11 E.00517
G1 X110.15 Y170.352 E.0011
G1 X110.089 Y170.946 E.00258
G1 X113.043 Y170.057 E.01334
G1 X114.083 Y169.708 E.00474
G1 X115.09 Y169.321 E.00466
G1 X118.338 Y167.996 E.01516
;WIDTH:4.98421
G1 X118.628 Y167.9 E.00132
;WIDTH:4.94188
G1 X118.918 Y167.803 E.0013
;WIDTH:4.89955
G1 X119.503 Y167.614 E.0026
;WIDTH:4.86111
G1 X120.089 Y167.424 E.00257
;WIDTH:4.82326
G1 X120.586 Y167.254 E.00217
;WIDTH:4.83599
G1 X121.174 Y167.046 E.00259
;WIDTH:4.87272
G1 X121.758 Y166.827 E.00261
;WIDTH:4.90008
G1 X122.121 Y166.684 E.00164
;WIDTH:4.92743
G1 X122.484 Y166.542 E.00166
;WIDTH:4.96372
G1 X122.958 Y166.351 E.00219
;WIDTH:5
G1 X123.954 Y165.954 E.00464
G1 X126.142 Y165.015 E.01029
G1 X127.049 Y164.659 E.00421
G1 X128.011 Y164.336 E.00439
G1 X133.241 Y162.635 E.02377
G1 X137.324 Y161.341 E.01852
G1 X140.609 Y160.234 E.01499
G1 X151.129 Y156.937 E.04766
G1 X131.178 Y158.951 F3000
G1 F300
G1 X136.037 Y157.404 E.02205
G1 X139.806 Y156.144 E.01718
G1 X148.921 Y153.281 E.04131
G1 X150.636 Y152.757 E.00775
G1 X153.116 Y152.044 E.01116
G1 X154.724 Y151.623 E.00718
G1 X156.924 Y151.111 E.00977
G1 X157.564 Y150.982 E.00282
G1 X159.616 Y150.613 E.00901
G1 X160.759 Y150.453 E.00499
G1 X162.523 Y150.274 E.00767
G1 X163.457 Y150.218 E.00405
G1 X164.896 Y150.182 E.00622
G1 X166.753 Y150.204 E.00803
G1 X167.843 Y150.241 E.00471
G1 X171.393 Y150.501 E.01539
G1 X172.058 Y150.569 E.00289
G1 X172.934 Y150.697 E.00383
G1 X173.898 Y150.861 E.00423
G1 X176.137 Y151.365 E.00992
G1 X178.762 Y152.034 E.01171
G1 X186.024 Y154.071 E.0326
G1 X186.128 Y137.979 E.06957
G1 X184.785 Y138.632 E.00646
G1 X184.121 Y138.918 E.00313
G1 X183.318 Y139.232 E.00373
G1 X182.482 Y139.517 E.00382
G1 X181.394 Y139.838 E.00491
G1 X180.458 Y140.067 E.00417
G1 X178.6 Y140.357 E.00813
G1 X177.771 Y140.448 E.00361
G1 X177.167 Y140.483 E.00261
G1 X176.21 Y140.489 E.00414
G1 X175.532 Y140.466 E.00293
G1 X173.718 Y140.317 E.00787
G1 X173.158 Y140.236 E.00244
G1 X171.81 Y139.971 E.00594
G1 X171.091 Y139.801 E.0032
G1 X169.84 Y139.445 E.00562
G1 X168.379 Y138.944 E.00668
G1 X167.126 Y138.44 E.00584
G1 X165.408 Y137.656 E.00816
G1 X163.462 Y136.615 E.00954
G1 X161.63 Y138.097 E.01019
G1 X159.989 Y139.297 E.00878
G1 X159.464 Y139.657 E.00275
G1 X158.178 Y140.48 E.0066
G1 X157.468 Y140.903 E.00357
G1 X156.976 Y141.188 E.00246
G1 X155.806 Y141.814 E.00573
G1 X154.714 Y142.351 E.00526
G1 X153.519 Y142.888 E.00566
G1 X152.648 Y143.251 E.00408
G1 X151.362 Y143.738 E.00594
G1 X149.408 Y144.363 E.00887
G1 X148.906 Y144.505 E.00225
G1 X148.045 Y144.707 E.00383
