; generated by PrusaSlicer 2.5.0+MacOS-x64 on 2023-08-23 at 19:37:00 UTC

; 

; external perimeters extrusion width = 5.00mm
; perimeters extrusion width = 5.00mm
; infill extrusion width = 5.00mm
; solid infill extrusion width = 5.00mm
; top infill extrusion width = 5.00mm
; first layer extrusion width = 5.00mm

M201 X1000 Y1000 Z20 E1500 ; sets maximum accelerations, mm/sec^2
M203 X13000 Y13000 Z800 E8000 ; sets maximum feedrates, mm / sec
M204 P1500 R1500 T1500 ; sets acceleration (P, T) and retract acceleration (R), mm/sec^2
M205 X17.00 Y17.00 Z0.10 E50.00 ; sets the jerk limits, mm/sec
M205 S0 T0 ; sets the minimum extruding and travel feed rate, mm/sec
M107
;TYPE:Custom
G91 ; relative moves
G1 Z1 F900 ; raise tool 1mm
G90 ; absolute moves
T-1 ; Make sure nothing is parked on the carriage
G0 X150 Y150 F10000; Move to the center of the print area
M558 F500  ; Set the probing speed
G30 ; Do a single probe
M558 F50 ; Set a slower probing speed
G30 ; Do a second probe
T0
G21 ; set units to millimeters
G90 ; use absolute coordinates
M83 ; use relative distances for extrusion
; Filament gcode
M107
;LAYER_CHANGE
;Z:4
;HEIGHT:4
;BEFORE_LAYER_CHANGE
G92 E0.0
G1 Z4 F3000
G1 X163.396 Y138.889
;TYPE:External perimeter
;WIDTH:5
G1 F300
G1 X163.826 Y138.84 E.00187
G1 X164.366 Y138.687 E.00243
G1 X164.835 Y138.486 E.0022
G1 X165.473 Y138.112 E.0032
G1 X166.678 Y137.376 E.0061
G1 X167.157 Y137.045 E.00252
G1 X169.851 Y134.939 E.01478
G1 X170.639 Y134.41 E.0041
G1 X171.124 Y134.115 E.00246
G1 X171.736 Y133.814 E.00295
G1 X171.863 Y134.21 E.0018
G1 X172.063 Y135.009 E.00356
G1 X172.252 Y135.92 E.00402
G1 X172.555 Y137.811 E.00828
G1 X172.835 Y140.041 E.00972
G1 X173.192 Y142.209 E.0095
G1 X173.359 Y143.018 E.00357
G1 X173.665 Y144.261 E.00553
G1 X173.869 Y145.004 E.00333
G1 X174.235 Y146.102 E.005
G1 X174.682 Y147.177 E.00503
G1 X175.192 Y148.156 E.00477
G1 X175.687 Y148.961 E.00409
G1 X176.334 Y149.871 E.00482
G1 X177.042 Y150.748 E.00488
G1 X177.75 Y151.547 E.00461
G1 X180.217 Y154.099 E.01534
G1 X181.601 Y155.445 E.00835
G1 X182.29 Y156.037 E.00393
G1 X182.631 Y156.275 E.0018
G1 X183.343 Y156.634 E.00344
G1 X183.87 Y156.74 E.00233
G1 X184.396 Y156.748 E.00227
G1 X184.863 Y156.698 E.00203
G1 X185.324 Y156.536 E.00211
G1 X185.858 Y156.26 E.0026
G1 X187.768 Y155.049 E.00978
G1 X188.806 Y156.043 E.00621
G1 X190.152 Y157.446 E.0084
G1 X191.467 Y158.942 E.00861
G1 X192.167 Y159.823 E.00486
G1 X192.724 Y160.561 E.004
G1 X193.301 Y161.368 E.00429
G1 X193.926 Y162.309 E.00488
G1 X194.965 Y164.003 E.00859
G1 X195.871 Y165.618 E.00801
G1 X196.601 Y167.116 E.0072
G1 X196.857 Y167.72 E.00284
G1 X197.021 Y168.215 E.00225
G1 X197.186 Y168.997 E.00346
G1 X197.333 Y170.001 E.00439
G1 X197.377 Y170.576 E.00249
G1 X197.376 Y171.164 E.00254
G1 X197.324 Y171.803 E.00277
G1 X197.236 Y172.383 E.00254
G1 X197.079 Y173.088 E.00312
G1 X196.863 Y173.81 E.00325
G1 X196.263 Y175.46 E.00759
G1 X195.886 Y176.379 E.00429
G1 X195.507 Y177.163 E.00376
G1 X194.823 Y178.38 E.00604
G1 X194.557 Y178.809 E.00218
G1 X194.236 Y179.228 E.00228
G1 X193.93 Y179.337 E.00141
G1 X193.39 Y179.381 E.00234
G1 X192.82 Y179.35 E.00247
G1 X191.885 Y179.209 E.00409
G1 X191.179 Y179.058 E.00312
G1 X189.57 Y178.642 E.00719
G1 X186.697 Y177.756 E.013
G1 X184.711 Y177.167 E.00895
G1 X183.392 Y176.725 E.00601
G1 X182.155 Y176.249 E.00573
G1 X178.135 Y174.6 E.01878
G1 X175.466 Y173.689 E.01219
G1 X173.881 Y173.117 E.00728
G1 X173.165 Y172.831 E.00334
G1 X170.903 Y171.86 E.01064
G1 X170.128 Y171.564 E.00358
G1 X164.439 Y169.72 E.02585
G1 X160.36 Y168.427 E.0185
G1 X157.048 Y167.311 E.01511
G1 X147.616 Y164.348 E.04274
G1 X146.002 Y163.855 E.00729
G1 X143.702 Y163.195 E.01035
G1 X142.338 Y162.842 E.00609
G1 X140.443 Y162.406 E.0084
G1 X138.714 Y162.085 E.00761
G1 X137.581 Y161.93 E.00494
G1 X136.454 Y161.827 E.00489
G1 X135.882 Y161.795 E.00248
G1 X135.026 Y161.779 E.0037
G1 X133.384 Y161.8 E.0071
G1 X132.494 Y161.833 E.00385
G1 X130.202 Y161.998 E.00994
G1 X129.296 Y162.086 E.00394
G1 X128.326 Y162.239 E.00424
G1 X126.409 Y162.679 E.0085
G1 X124.068 Y163.281 E.01045
G1 X115.939 Y165.565 E.0365
G1 X114.458 Y165.947 E.00661
G1 X113.08 Y166.266 E.00611
G1 X111.052 Y166.695 E.00896
G1 X105.821 Y167.688 E.02302
G1 X102.473 Y168.392 E.01479
G1 X102.171 Y121.931 E.20086
G1 X102.461 Y121.91 E.00126
G1 X104.171 Y121.88 E.00739
G1 X105.249 Y121.91 E.00466
G1 X106.315 Y122.005 E.00463
G1 X107.487 Y122.187 E.00513
G1 X108.677 Y122.454 E.00527
G1 X109.234 Y122.599 E.00249
G1 X109.952 Y122.82 E.00325
G1 X111.006 Y123.196 E.00484
G1 X112.119 Y123.664 E.00522
G1 X113.137 Y124.15 E.00488
G1 X114.161 Y124.691 E.00501
G1 X115.167 Y125.267 E.00501
G1 X118.212 Y127.134 E.01544
G1 X119.176 Y127.672 E.00477
G1 X120.098 Y128.117 E.00443
G1 X120.791 Y128.392 E.00323
G1 X121.84 Y128.701 E.00473
G1 X122.663 Y128.84 E.00361
G1 X123.205 Y128.874 E.00235
G1 X123.925 Y128.888 E.00311
G1 X124.862 Y128.81 E.00406
G1 X125.937 Y128.593 E.00474
G1 X126.738 Y128.368 E.0036
G1 X127.504 Y128.105 E.0035
G1 X128.504 Y127.695 E.00467
G1 X129.382 Y127.296 E.00417
G1 X130.72 Y126.584 E.00655
G1 X132.236 Y125.646 E.00771
G1 X133.696 Y124.607 E.00775
G1 X134.857 Y123.699 E.00637
G1 X137.913 Y121.19 E.01709
G1 X139.192 Y122.762 E.00876
G1 X140.32 Y124.072 E.00747
G1 X141.444 Y125.301 E.0072
G1 X142.591 Y126.455 E.00704
G1 X143.892 Y127.647 E.00763
G1 X145.287 Y128.792 E.0078
G1 X146.862 Y129.939 E.00842
G1 X148.306 Y130.848 E.00738
G1 X148.796 Y131.13 E.00244
G1 X149.562 Y131.536 E.00375
G1 X150.349 Y131.919 E.00378
G1 X151.14 Y132.269 E.00374
G1 X151.943 Y132.593 E.00374
G1 X152.842 Y132.925 E.00414
G1 X153.951 Y133.265 E.00502
G1 X155.126 Y133.539 E.00521
G1 X156.45 Y133.733 E.00579
G1 X157.439 Y133.814 E.00429
G1 X158.084 Y133.836 E.00279
G1 X158.313 Y134.249 E.00204
G1 X158.661 Y134.588 E.0021
G1 X158.887 Y134.739 E.00117
G1 X159.341 Y134.971 E.0022
G1 X160.11 Y135.23 E.00351
G1 X160.791 Y136.964 E.00805
G1 X161.161 Y137.658 E.0034
G1 X161.49 Y138.085 E.00233
G1 X161.956 Y138.445 E.00255
G1 X162.386 Y138.67 E.0021
G1 X162.661 Y138.756 E.00125
G1 X146.909 Y160.668 F3000
;TYPE:Solid infill
G1 F300
G1 X158.034 Y164.148 E.05039
G1 X161.39 Y165.278 E.01531
G1 X165.47 Y166.571 E.0185
G1 X171.346 Y168.482 E.02671
G1 X172.136 Y168.785 E.00366
G1 X174.434 Y169.77 E.01081
G1 X175.059 Y170.02 E.00291
G1 X176.564 Y170.563 E.00691
G1 X179.302 Y171.499 E.01251
G1 X183.379 Y173.17 E.01905
G1 X184.514 Y173.606 E.00526
G1 X185.709 Y174.007 E.00545
G1 X187.678 Y174.591 E.00888
G1 X190.474 Y175.453 E.01265
G1 X191.94 Y175.833 E.00655
G1 X192.405 Y175.932 E.00205
G1 X192.843 Y175.061 E.00422
G1 X193.156 Y174.303 E.00354
G1 X193.716 Y172.768 E.00706
G1 X193.87 Y172.253 E.00233
G1 X193.998 Y171.636 E.00272
G1 X194.06 Y171.066 E.00248
G1 X194.033 Y170.328 E.00319
G1 X193.923 Y169.581 E.00326
G1 X193.817 Y169.082 E.00221
G1 X193.63 Y168.597 E.00224
G1 X192.926 Y167.137 E.00701
G1 X192.12 Y165.701 E.00712
G1 X191.133 Y164.093 E.00816
G1 X190.572 Y163.249 E.00438
G1 X190.058 Y162.529 E.00382
G1 X188.919 Y161.061 E.00803
G1 X187.712 Y159.687 E.00791
G1 X187.287 Y159.245 E.00265
G1 X186.783 Y159.51 E.00246
G1 X185.818 Y159.864 E.00444
G1 X185.342 Y159.97 E.00211
G1 X184.575 Y160.05 E.00333
G1 X183.738 Y160.049 E.00362
G1 X182.839 Y159.922 E.00392
G1 X182.022 Y159.672 E.00369
G1 X181.441 Y159.393 E.00279
G1 X180.853 Y159.065 E.00291
G1 X180.112 Y158.534 E.00394
G1 X179.319 Y157.847 E.00454
G1 X178.704 Y157.252 E.0037
G1 X177.828 Y156.395 E.0053
G1 X175.444 Y153.932 E.01482
G1 X174.445 Y152.806 E.00651
G1 X173.606 Y151.753 E.00582
G1 X172.869 Y150.705 E.00554
G1 X172.308 Y149.782 E.00467
G1 X171.7 Y148.617 E.00568
G1 X171.009 Y146.914 E.00795
G1 X170.695 Y145.954 E.00436
G1 X170.369 Y144.763 E.00534
G1 X170.041 Y143.335 E.00633
G1 X169.857 Y142.427 E.00401
G1 X169.563 Y140.564 E.00815
G1 X169.426 Y139.48 E.00472
G1 X169.004 Y139.796 E.00228
G1 X168.216 Y140.333 E.00412
G1 X166.539 Y141.327 E.00843
G1 X166.068 Y141.553 E.00226
G1 X165.393 Y141.837 E.00317
G1 X164.469 Y142.084 E.00414
G1 X163.99 Y142.154 E.00209
G1 X163.295 Y142.192 E.00301
G1 X162.846 Y142.168 E.00194
G1 X162.167 Y142.056 E.00298
G1 X161.778 Y141.953 E.00174
G1 X160.877 Y141.616 E.00416
G1 X160.461 Y141.404 E.00202
G1 X159.727 Y140.92 E.0038
G1 X159.392 Y140.644 E.00188
G1 X158.86 Y140.103 E.00328
G1 X158.481 Y139.598 E.00273
G1 X158.21 Y139.168 E.0022
G1 X157.77 Y138.323 E.00412
G1 X157.538 Y137.769 E.00259
G1 X156.939 Y137.416 E.00301
G1 X156.519 Y137.108 E.00225
G1 X156.394 Y137.052 E.00059
G1 X155.862 Y136.998 E.00231
G1 X154.584 Y136.807 E.00559
G1 X153.199 Y136.493 E.00614
G1 X151.652 Y136.018 E.007
G1 X150.764 Y135.689 E.0041
G1 X149.887 Y135.337 E.00408
G1 X149.262 Y135.06 E.00296
G1 X148.122 Y134.52 E.00545
G1 X147.332 Y134.104 E.00386
G1 X146.677 Y133.732 E.00326
G1 X145.005 Y132.682 E.00853
G1 X143.26 Y131.411 E.00933
G1 X141.746 Y130.171 E.00846
G1 X140.317 Y128.864 E.00837
G1 X138.993 Y127.531 E.00812
G1 X137.47 Y125.841 E.00984
G1 X135.751 Y127.206 E.00949
G1 X134.005 Y128.448 E.00926
G1 X132.408 Y129.434 E.00811
G1 X130.872 Y130.254 E.00753
G1 X129.87 Y130.71 E.00476
G1 X129.389 Y130.923 E.00227
G1 X128.599 Y131.232 E.00367
G1 X127.593 Y131.57 E.00458
G1 X126.612 Y131.838 E.0044
G1 X125.359 Y132.085 E.00552
G1 X124.835 Y132.148 E.00228
G1 X124.045 Y132.194 E.00342
G1 X123.232 Y132.182 E.00351
G1 X122.235 Y132.124 E.00432
G1 X121.147 Y131.94 E.00477
G1 X120.649 Y131.818 E.00222
G1 X119.663 Y131.507 E.00447
G1 X118.874 Y131.195 E.00367
G1 X117.763 Y130.67 E.00531
G1 X116.537 Y129.991 E.00606
G1 X113.477 Y128.118 E.01551
G1 X112.564 Y127.594 E.00455
G1 X111.649 Y127.111 E.00447
G1 X110.762 Y126.687 E.00425
G1 X109.806 Y126.286 E.00448
G1 X108.907 Y125.965 E.00413
G1 X108.336 Y125.789 E.00258
G1 X106.862 Y125.443 E.00655
G1 X105.891 Y125.292 E.00425
G1 X105.506 Y125.259 E.00167
G1 X105.76 Y164.327 E.1689
G1 X110.4 Y163.446 E.02042
G1 X112.364 Y163.031 E.00868
G1 X113.671 Y162.729 E.0058
G1 X115.078 Y162.366 E.00628
G1 X123.253 Y160.069 E.03671
G1 X125.619 Y159.461 E.01056
G1 X127.799 Y158.968 E.00966
G1 X128.896 Y158.798 E.0048
G1 X129.876 Y158.701 E.00426
G1 X132.303 Y158.526 E.01052
G1 X133.297 Y158.488 E.0043
G1 X135.04 Y158.466 E.00753
G1 X135.96 Y158.483 E.00398
G1 X136.584 Y158.519 E.0027
G1 X138.041 Y158.649 E.00632
G1 X139.336 Y158.831 E.00565
G1 X141.126 Y159.164 E.00787
G1 X143.141 Y159.628 E.00894
G1 X144.6 Y160.006 E.00652
G1 X146.188 Y160.462 E.00714
G1 X148.051 Y156.687 F3000
G1 F300
G1 X149.791 Y157.218 E.00787
G1 X159.288 Y160.201 E.04303
G1 X162.676 Y161.341 E.01546
G1 X166.76 Y162.635 E.01852
G1 X172.627 Y164.544 E.02667
G1 X173.633 Y164.924 E.00465
G1 X176.021 Y165.944 E.01123
G1 X177.042 Y166.352 E.00475
;WIDTH:4.96371
G1 X177.516 Y166.542 E.00219
;WIDTH:4.92743
G1 X177.879 Y166.684 E.00166
;WIDTH:4.90007
G1 X178.242 Y166.827 E.00164
;WIDTH:4.87272
G1 X178.826 Y167.046 E.00261
;WIDTH:4.83599
G1 X179.414 Y167.254 E.00259
;WIDTH:4.82326
G1 X179.893 Y167.418 E.00209
;WIDTH:4.83964
G1 X180.616 Y167.656 E.00316
;WIDTH:4.88783
G1 X180.965 Y167.77 E.00154
;WIDTH:4.93602
G1 X181.314 Y167.883 E.00156
;WIDTH:4.98421
G1 X181.662 Y167.996 E.00158
;WIDTH:5
G1 X184.91 Y169.321 E.01516
G1 X185.917 Y169.708 E.00466
G1 X186.957 Y170.057 E.00474
G1 X189.911 Y170.946 E.01334
G1 X189.846 Y170.324 E.0027
G1 X189.625 Y169.818 E.00239
G1 X189.244 Y169.036 E.00376
G1 X188.893 Y168.393 E.00317
G1 X187.642 Y166.323 E.01046
G1 X187.161 Y165.6 E.00376
G1 X186.736 Y165.003 E.00317
G1 X185.998 Y164.052 E.0052
G1 X185 Y164.169 E.00434
G1 X184.242 Y164.201 E.00328
G1 X183.657 Y164.19 E.00253
G1 X182.768 Y164.1 E.00386
;WIDTH:4.98421
G1 X182.471 Y164.03 E.00132
;WIDTH:4.94188
G1 X182.173 Y163.959 E.0013
;WIDTH:4.89955
G1 X181.684 Y163.816 E.00215
;WIDTH:4.8611
G1 X181.194 Y163.673 E.00213
;WIDTH:4.82326
G1 X180.702 Y163.504 E.00215
;WIDTH:4.87272
G1 X179.828 Y163.152 E.00395
;WIDTH:4.90007
G1 X179.492 Y162.991 E.00157
;WIDTH:4.92743
G1 X179.156 Y162.829 E.00158
;WIDTH:4.96371
G1 X178.819 Y162.645 E.00164
;WIDTH:5
G1 X178.483 Y162.461 E.00166
G1 X177.913 Y162.063 E.00301
G1 X177.401 Y161.664 E.00281
G1 X176.607 Y160.977 E.00454
G1 X174.975 Y159.399 E.00981
G1 X172.28 Y156.609 E.01677
G1 X171.135 Y155.302 E.00751
G1 X170.135 Y154.023 E.00702
G1 X169.473 Y153.076 E.00499
G1 X168.837 Y152.054 E.0052
G1 X168.028 Y150.533 E.00745
G1 X167.778 Y149.992 E.00258
G1 X167.238 Y148.66 E.00621
G1 X167.072 Y148.201 E.00211
G1 X166.759 Y147.241 E.00436
G1 X166.376 Y145.863 E.00619
G1 X165.534 Y146.087 E.00376
G1 X165.021 Y146.2 E.00227
G1 X164.275 Y146.286 E.00325
G1 X163.521 Y146.328 E.00327
G1 X162.732 Y146.321 E.00341
G1 X162.174 Y146.255 E.00243
G1 X161.495 Y146.143 E.00298
G1 X160.711 Y145.961 E.00348
G1 X159.428 Y145.496 E.0059
G1 X158.782 Y145.212 E.00305
G1 X158.179 Y144.86 E.00302
G1 X157.445 Y144.376 E.0038
G1 X156.949 Y144.012 E.00266
G1 X156.438 Y143.547 E.00299
G1 X155.57 Y142.635 E.00544
G1 X155.149 Y142.068 E.00305
G1 X154.858 Y141.627 E.00228
G1 X154.484 Y140.979 E.00323
G1 X153.971 Y140.903 E.00224
G1 X153.267 Y140.76 E.00311
G1 X152.267 Y140.528 E.00444
G1 X151.821 Y140.408 E.00199
G1 X150.423 Y139.973 E.00633
G1 X149.312 Y139.568 E.00511
G1 X148.311 Y139.167 E.00466
G1 X147.097 Y138.627 E.00575
G1 X146.311 Y138.245 E.00378
G1 X145.398 Y137.767 E.00445
G1 X144.056 Y136.993 E.0067
G1 X142.771 Y136.17 E.0066
G1 X140.815 Y134.754 E.01044
G1 X138.956 Y133.232 E.01039
G1 X137.601 Y131.997 E.00792
G1 X137.002 Y131.403 E.00365
G1 X136.189 Y131.967 E.00428
G1 X134.359 Y133.087 E.00927
G1 X132.823 Y133.908 E.00753
G1 X131.087 Y134.702 E.00825
G1 X130.11 Y135.088 E.00454
G1 X128.899 Y135.5 E.00553
G1 X127.689 Y135.837 E.00543
G1 X126.144 Y136.152 E.00681
G1 X125.639 Y136.228 E.00221
G1 X125.019 Y136.287 E.00269
G1 X124.15 Y136.336 E.00376
G1 X123.531 Y136.341 E.00268
G1 X122.313 Y136.288 E.00527
G1 X121.563 Y136.21 E.00326
G1 X120.458 Y136.024 E.00485
G1 X119.907 Y135.905 E.00244
G1 X119.296 Y135.736 E.00274
G1 X118.409 Y135.454 E.00402
G1 X117.327 Y135.037 E.00501
G1 X116.107 Y134.472 E.00581
G1 X114.619 Y133.665 E.00732
G1 X111.366 Y131.681 E.01647
G1 X110.567 Y131.223 E.00398
G1 X109.683 Y130.762 E.00431
G1 X109.869 Y159.326 E.12349
G1 X111.468 Y158.987 E.00707
G1 X112.687 Y158.705 E.00541
G1 X114.001 Y158.367 E.00587
G1 X122.133 Y156.082 E.03652
G1 X124.589 Y155.45 E.01097
G1 X126.888 Y154.928 E.01019
G1 X128.279 Y154.702 E.00609
G1 X129.483 Y154.578 E.00524
G1 X131.972 Y154.398 E.01079
G1 X133.145 Y154.349 E.00508
G1 X134.989 Y154.324 E.00797
G1 X136.119 Y154.344 E.00489
G1 X136.834 Y154.385 E.0031
G1 X137.482 Y154.429 E.00281
G1 X138.428 Y154.525 E.00411
G1 X139.913 Y154.73 E.00648
G1 X141.889 Y155.093 E.00869
G1 X144.074 Y155.592 E.00969
G1 X145.59 Y155.984 E.00677
G1 X147.33 Y156.481 E.00782
G1 X168.822 Y158.951 F3000
G1 F300
G1 X167.891 Y157.877 E.00615
G1 X167.119 Y156.904 E.00537
G1 X166.739 Y156.394 E.00275
G1 X166.078 Y155.447 E.00499
G1 X165.722 Y154.902 E.00281
G1 X164.965 Y153.615 E.00646
G1 X164.357 Y152.45 E.00568
G1 X164.061 Y151.834 E.00295
G1 X163.502 Y150.468 E.00638
G1 X162.433 Y150.451 E.00462
G1 X161.843 Y150.392 E.00256
G1 X160.823 Y150.23 E.00447
G1 X160.166 Y150.1 E.0029
G1 X159.517 Y149.927 E.0029
G1 X158.88 Y149.712 E.00291
G1 X157.433 Y149.154 E.0067
G1 X156.903 Y148.903 E.00254
G1 X156.39 Y148.623 E.00253
G1 X155.896 Y148.316 E.00251
G1 X154.74 Y147.538 E.00603
G1 X154.336 Y147.225 E.00221
G1 X153.867 Y146.82 E.00268
G1 X152.952 Y145.909 E.00558
G1 X152.588 Y145.518 E.00231
G1 X151.953 Y144.707 E.00446
G1 X150.75 Y144.41 E.00536
G1 X149.193 Y143.928 E.00704
G1 X147.663 Y143.373 E.00704
G1 X146.735 Y142.997 E.00433
G1 X145.423 Y142.417 E.0062
G1 X144.499 Y141.969 E.00444
G1 X143.465 Y141.429 E.00505
G1 X142.227 Y140.727 E.00615
G1 X140.536 Y139.657 E.00865
G1 X140.011 Y139.297 E.00275
G1 X138.371 Y138.097 E.00878
G1 X136.538 Y136.615 E.01019
G1 X134.774 Y137.561 E.00865
G1 X134.137 Y137.874 E.00307
G1 X132.412 Y138.635 E.00815
G1 X131.108 Y139.13 E.00603
G1 X129.634 Y139.602 E.00669
G1 X128.134 Y139.985 E.00669
G1 X126.93 Y140.218 E.0053
